X:1
T:Eccles (Luard-Selby), 66.66
T:Eccles (Luard-Selby), 66.66
T:Bertram Luard-Selby, 1904
T:Public Domain Courtesy of the Cyber Hymnal™
C:Bertram Luard-Selby, 1904
Z:Public Domain
Z:Courtesy of the Cyber Hymnal™
%%score ( 1 2 ) ( 3 4 )
L:1/8
Q:1/4=115
M:4/4
K:Ab
V:1 treble 
V:2 treble 
V:3 bass 
V:4 bass 
V:1
 [DF]2 | [C=E]2 [CF]2 [_EG]2 [EG]2 | [EA]6 [FA]2 | [EG]2 [DA]2 [B,B]2 [EB]2 | [Ec]6 [Ec]2 | %5
 [EB]2 [Be]2 [Ad]2 [_Gc]2 x | [FB]2 d2 [=Ec]2 (BA) x | A6 z2 G2 | [EA]6 |] %9
V:2
 x2 | x8 | x8 | x8 | x8 | x9 | x2 (GF) x F2 x2 | E4 E4 x2 | x6 |] %9
V:3
 [B,,B,]2 | [C,G,]2 [F,A,]2 [E,B,]2 [E,B,]2 | [A,,C]6 [D,D]2 | [E,B,]2 [F,A,]2 [E,A,]2 [E,G,]2 | %4
 A,6 A,2 | B,3 z C [F,D]2 [E,=A,]2 | B,3 z A, [C,G,]2 (F,D) | (C2 B,A,) [E,B,]4 x2 | [A,,C]6 |] %9
V:4
 x2 | x8 | x8 | x8 | A,6 A,2 | G,2 _G,2 x5 | D,2 (B,,2 x D,2) x2 | E,4 x6 | x6 |] %9

